X: 25088
T: Maids Of Mitchelstown, The
R: reel
M: 4/4
K: Ddorian
D2AG EG ~G2|A2 GA cAGE|D2 AG EG ~G2|(3ABc GE ED D2:|
|:EGAB c2 BG|Adde f2 ed|cAGE ~F3 G|1 (3ABc GE ED D2:|2 (3ABc Bd cAGF||

